Presets/Color Pop 6.lrtemplate
s = {
	id = "4FB1E877-6A32-4598-B654-08523812A84A",
	internalName = "Color Pop 6",
	title = "Color Pop 6",
	type = "Develop",
	value = {
		settings = {
			AutoLateralCA = 0,
			Blacks2012 = 0,
			ChromaticAberrationB = 0,
			ChromaticAberrationR = 0,
			Clarity2012 = 0,
			ColorNoiseReduction = 62,
			ColorNoiseReductionDetail = 67,
			Contrast2012 = 0,
			ConvertToGrayscale = false,
			Defringe = 0,
			DefringeGreenAmount = 0,
			DefringeGreenHueHi = 60,
			DefringeGreenHueLo = 40,
			DefringePurpleAmount = 0,
			DefringePurpleHueHi = 70,
			DefringePurpleHueLo = 30,
			EnableColorAdjustments = true,
			EnableDetail = true,
			EnableEffects = true,
			EnableLensCorrections = true,
			EnableSplitToning = true,
			Exposure2012 = 0,
			GrainAmount = 0,
			GrainFrequency = 50,
			GrainSize = 25,
			Highlights2012 = 0,
			HueAdjustmentAqua = 0,
			HueAdjustmentBlue = 0,
			HueAdjustmentGreen = 0,
			HueAdjustmentMagenta = 0,
			HueAdjustmentOrange = 0,
			HueAdjustmentPurple = 0,
			HueAdjustmentRed = 0,
			HueAdjustmentYellow = 0,
			LuminanceAdjustmentAqua = 0,
			LuminanceAdjustmentBlue = 0,
			LuminanceAdjustmentGreen = 0,
			LuminanceAdjustmentMagenta = 0,
			LuminanceAdjustmentOrange = 0,
			LuminanceAdjustmentPurple = 0,
			LuminanceAdjustmentRed = 0,
			LuminanceAdjustmentYellow = 0,
			LuminanceNoiseReductionContrast = 0,
			LuminanceNoiseReductionDetail = 56,
			LuminanceSmoothing = 39,
			ParametricDarks = 41,
			ParametricHighlightSplit = 77,
			ParametricHighlights = 0,
			ParametricLights = 30,
			ParametricMidtoneSplit = 50,
			ParametricShadowSplit = 25,
			ParametricShadows = -28,
			PostCropVignetteAmount = 0,
			PostCropVignetteFeather = 50,
			PostCropVignetteHighlightContrast = 0,
			PostCropVignetteMidpoint = 50,
			PostCropVignetteRoundness = 0,
			PostCropVignetteStyle = 1,
			ProcessVersion = "6.7",
			Saturation = 0,
			SaturationAdjustmentAqua = -11,
			SaturationAdjustmentBlue = 15,
			SaturationAdjustmentGreen = -15,
			SaturationAdjustmentMagenta = 11,
			SaturationAdjustmentOrange = -15,
			SaturationAdjustmentPurple = -13,
			SaturationAdjustmentRed = 10,
			SaturationAdjustmentYellow = 13,
			Shadows2012 = 0,
			SharpenDetail = 25,
			SharpenEdgeMasking = 0,
			SharpenRadius = 1,
			Sharpness = 0,
			SplitToningBalance = 2,
			SplitToningHighlightHue = 26,
			SplitToningHighlightSaturation = 2,
			SplitToningShadowHue = 330,
			SplitToningShadowSaturation = 3,
			ToneCurveName2012 = "Linear",
			ToneCurvePV2012 = {
				0,
				0,
				255,
				255,
			},
			ToneCurvePV2012Blue = {
				0,
				0,
				255,
				255,
			},
			ToneCurvePV2012Green = {
				0,
				0,
				255,
				255,
			},
			ToneCurvePV2012Red = {
				0,
				0,
				255,
				255,
			},
			Vibrance = 9,
			VignetteAmount = 0,
			VignetteMidpoint = 50,
			Whites2012 = 0,
		},
		uuid = "A2D2F116-427F-42D7-B2B1-87217F46E5E3",
	},
	version = 0,
}
